X:33
T:The Mad Otter's Holt
R:reel
D:"Chasing the bear" by Jon Hicks
Z:Transcribed by Lionel Gueganton
L:1/8
M:4/4
K:D
|: B2 EB2E ED  | B,A, B,E D2 B,E    | DE FG BE EB    | EE ED B,A, B,D | [E2E2] EG FD [E2E2E,2] |
 BE EB EE ED   | B,A, B,E D2 B,/C/D | EF GA Bc de    | d=c BA FF DF   | E2 EG FD E2 :|
|: G2 GB dB Gd |zd Bd eB dB         | A=c BA G2 GB   | dB Gd2d Bd     | eB dB A/A/A BA 
|  G2 GB dB Gd |zd Bd eB dB         | A/A/A GA BE EB | EE ED B,A, B,D | [E2E2] EG FD [E2E2E,2] :|

